X:1
T:YES! We Have No Bananas
T:YES! We Have No Bananas
T: By FRANK SILVER and IRVING COHN 
T:Copyright MCMXXIII by Skidmore Music Co. Inc. 218 West 47th Street, New York
T:Copyright MCMXXIII by Skidmore Music Co. Inc. 218 West 47th Street, New York
T:Copyright MCMXXIII by Skidmore Music Co. Inc. 218 West 47th Street, New York
C:Frank Silver and Irving Cohn
Z:Copyright MCMXXIII by Skidmore Music Co. Inc. 218 West 47th Street, New York
%%score 1 { ( 2 4 ) | ( 3 5 ) }
L:1/8
Q:1/4=180
M:2/2
K:C
V:1 treble nm="Voice"
V:2 treble nm="Piano"
V:4 treble 
V:3 bass 
V:5 bass 
V:1
 z8 | z8 | z8 | z8 | z8 | z8 | z8 | z8 || e2 c2 d2 c2 | A2 c2 G4 | G2 G2 A2 B2 | c4 z4 | %12
w: ||||||||There's a fruit store|on our street|It's run by a|Greek|
w: ||||||||Bus- 'ness got so|good with him|He wrote home to|say|
 e2 c2 d2 c2 | A2 c2 G2 A2 | B2 B2 A2 ^F2 | B4 z4 | e2 c2 d2 c2 | A2 c2 G4 | G2 G2 A2 B2 | c4 z4 | %20
w: And he keeps good|things to eat But|you should hear him|speak|When you ask him|an- y- thing|Ne- ver an- swers|"no"|
w: "Send me Pete and|Nick and Jim, I|need help right a-|way"|When he got them|in the store|There was fun, you|bet|
 B2 d2 B2 d2 | B2 d2 B2 c2 | d2 c2 B2 A2 | G2 G2 A2 B2 |:"^Chorus" c2 z2 z2 G2 | A2 G2 z2 F2 | %26
w: He just "yes- ses"|you to death And|as he takes your|dough– he tells you:|YES! We|have no ba-|
w: Some one asked for|'Spar- row- grass' And|then the whole quar-|tette– all ans- wered:|||
 E2 G6- | G2 z2 z2 ^G2 | A2 d2 z2 c2 | B2 A2 z2 B2 | c8- | c2 z2 z2 G2 | A2 d2 z2 c2 | %33
w: na- nas|_ We|have no ba-|na- nas to-|day|_ We've|string beans and|
w: |||||||
 _A2 d2 z2 c2 | G2 d2 z2 c2 | G2 d2 z2 c2 | ^F2 G2 z2 A2 | B4 B4 | B8- | B z E2 F2 ^F2 | G8 | %41
w: HON- ions cab-|BAH- ges and|scal- lions And|all kinds of|fruit and|say|_ We have an|old|
w: ||||||||
 A2 A4 G2 | G2 c6- | c8 | c8 | d2 d4 c2 | c2 A6- | A4 G4 | c2 z2 z2 G2 | A2 G2 z2 F2 | E2 G6- | %51
w: fash- ioned to-|MAH- to|_|Long|Is- land po-|TAH- to|_ But|YES! we|have no ba-|na- nas|
w: ||||||||||
 G2 z2 z2 ^G2 | A2 d2 z2 c2 | B2 A2 z2 B2 |1 c8 | z8 :|2 c8- | c2 z2 z4 |] %58
w: _ We|have no ba-|na- nas to-|day.||day|_|
w: |||||||
V:2
!f!"^Moderato" [EGc]2 z2 z2 [CG]2 | [CA]2 [CG]2 z2 [B,F]2 | [CE]2 [CEG]6- | [CEG]4 z2 G2 | %4
 cdec A2 A2 | G2 G2 c4 | [^Fcd]2 [Fcd]2 z2 [Fcd]2 | [=FBd]2 z2 !^![GBfg] z z2 || %8
!p! [EGe]2 [EGc]2 [FAd]2 [FAc]2 | [CFA]2 [CFAc]2 G4 | [B,FG]2 [B,FG]2 [C^DA]2 [=DGB]2 | [CGc]4 z4 | %12
 [EGe]2 [EGc]2 [FAd]2 [FAc]2 | [CFA]2 [CFAc]2 [CG]2 [CGA]2 | [B,^FB]2 [B,FB]2 [B,^DA]2 [B,DF]2 | %15
 [B,E^GB]4 !>![B,=F=G]4 | [EGe]2 [EGc]2 [FAd]2 [FAc]2 | [CFA]2 [CFAc]2 G4 | %18
 [B,FG]2 [B,FG]2 [C^DA]2 [=DGB]2 | [CGc]4 z4 | B2 d2 B2 d2 | B2 d2 B2 c2 | %22
 [^Fd]2 [Ec]2 [DB]2 [CA]2 | [B,=FG]2 [DFG]2 [DFA]2 [DFB]2 |:!p!!f! !>![EGc]2 z2 z2 [CG]2 | %25
 [CA]2 [CG]2 z2 [B,F]2 | [CE]2 [CEG]6- | [CEG]2 z2 z2 ^G2 | ([C^FA]2 !>![Fd]2) z2 [Ec]2 | %29
 ([=FB]2 !>![FA]2) z2 [FB]2 | [Ec]8- | [Ec]2 z2 z2 G2 | ([FA]2 !>![FAd]2) z2 [FAc]2 | %33
 ([F_A]2 !>![FAd]2) z2 [FAc]2 | ([EG]2 !>![EGd]2) z2 [EGc]2 | ([EG]2 !>![EGd]2) z2 [EGc]2 | %36
 ([^D^F]2 !>![DG]2) z2 [DA]2 | [^DB]4 [DAB]4 | B8- | B z!<(! (E2 F2 ^F2!<)! | G8) | %41
 [CA]2 [CA]4 [CG]2 | [CG]2 c6- | c8 | c8 | [FAd]2 [FAd]4 [FAc]2 | [FAc]2 A6- | A4 G4 | %48
 !>![EGc]2 z2 z2 [CG]2 | [CA]2 [CG]2 z2 [B,F]2 | [CE]2 G6- | G6 ^G2 | %52
 ([=C^FA]2 !>![Fd]2) z2 [Fc]2 | ([=FB]2 !>![FA]2) z2 [FB]2 |1 [Ec]2 !>!e2 !>!d2 !>!c2 | %55
 !>!A2 !>!^A2 !>!B2 !>!G2 :|2 c8- | [CEc]2 z2 !^![cegc'] z z2 |] %58
V:3
 [C,C]2 z2 z2 E,2 | F,2 E,2 z2 D,2 | C,2 z2 z2 !>!F,,2 | !>!E,,2 !>!G,,2 z4 | CDEC A,2 A,2 | %5
 G,2 G,2 C4 | A,2 A,2 z2 _A,2 | G,2 z2 !^!G,, z z2 || [C,,C,]2 z2 [F,,F,]2 z2 | %9
 [F,,F,]2 z2 [C,,C,]2 z2 | [G,,G,]2 G,2 ^F,2 =F,2 | [C,E,]4 !>!C,, z z2 | [C,,C,]2 z2 [F,,F,]2 z2 | %13
 [F,,F,]2 z2 [E,,E,]2 z2 | [^D,,^D,]4 [B,,,B,,]4 | [E,,E,]4 !>![=D,,=D,]4 | %16
 [C,,C,]2 z2 [F,,F,]2 z2 | [F,,F,]2 z2 [C,,C,]2 z2 | [G,,G,]2 G,2 ^F,2 =F,2 | [C,E,]4 !>!C,, z z2 | %20
 G,4 ^F,4 | E,4 D,4 | A,,4 D,,4 | G,,2 B,2 A,2 G,2 |: !>![C,C]2 z2 z2 E,2 | F,2 E,2 z2 D,2 | %26
 C,2 z2 z2 !>!F,,2 | !>!E,,2 !>!G,,2 z4 | [D,,D,]2 !>![D,,D,]2 z2 [D,,D,]2 | %29
 [G,,G,]2 !>![G,,G,]2 z2 [G,,G,]2 | C,2 !>!G,,2 !>!A,,2 !>!B,,2 | !>!C,2 z2 !>!C,,2 z2 | %32
 [F,,F,]2 !>![F,,F,]2 z2 [F,,F,]2 | [F,,F,]2 !>![F,,F,]2 z2 [F,,F,]2 | %34
 [G,,G,]2 !>![G,,G,]2 z2 [G,,G,]2 | [G,,G,]2 !>![G,,G,]2 z2 [G,,G,]2 | %36
 [B,,A,]2 !>![B,,G,]2 z2 [B,,^F,]2 | [B,,A,]4 [B,,^F,]4 | z2 [E,,E,]4 [E,,E,]2 | %39
 [D,,D,] z (C,2 D,2 ^D,2 | [C,E,]4) [C,,C,]2 z2 | [F,,C,]2 [F,,F,]4 [E,,E,]2 | [E,,E,]2 z2 (!>!C4 | %43
 !>!B,4 !>!_B,4) | (A,4 C,4) | F,2 z2 C,2 z2 | F,2 z2 C,2 z2 | F,2 z2 [G,,G,]4 | %48
 !>![C,C]2 z2 z2 E,2 | F,2 E,2 z2 D,2 | C,2 (C,2 =B,,2 _B,,2 | A,,4) A,,,2 z2 | %52
 [D,,D,]2 !>![D,,D,]2 z2 [D,,D,]2 | [G,,G,]2 !>![G,,G,]2 z2 [G,,G,]2 |1 [C,C]2 !>!E2 !>!D2 !>!C2 | %55
 ((!>![D,C]4 !>![G,B,]4)) :|2 z2 _B,2 A,2 _A,2 | G,2 z2 !^![C,,C,] z z2 |] %58
V:4
 x8 | x8 | x8 | x8 | x8 | x8 | x8 | x8 || x8 | x4 z2 [CE]2 | x8 | x8 | x8 | x8 | x8 | x8 | x8 | %17
 x4 z2 [CE]2 | x8 | x8 | G4 ^F4 | E4 [DG]4 | x8 | x8 |: x8 | x8 | x8 | x8 | x8 | x8 | x8 | x8 | %32
 x8 | x8 | x8 | x8 | x8 | x8 | z2 [B,E^G]4 [B,EG]2 | [B,F=G] x x2 x4 | z2 (C2 B,2 _B,2 | %41
 A,2) x2 x4 | x2 [EG]4 [EG]2 | z2 [EG]2 z2 [EG]2 | z2 [CFA]2 z2 [CFA]2 | x8 | x2 [CF]4 [CF]2 | %47
 z2 [CF]2 [B,F]4 | x8 | x8 | x2 (E2 ^D2 =D2 | ^C6) x2 | x8 | x8 |1 x8 | ^F4 =F4 :|2 %56
 z2 [EG]2 [^D^F]2 [=D=F]2 | x8 |] %58
V:5
 x8 | x8 | x8 | x8 | x8 | x8 | x8 | x8 || x8 | x8 | x8 | x8 | x8 | x8 | x8 | x8 | x8 | x8 | x8 | %19
 x8 | G,,8- | G,,8 | x8 | x8 |: x8 | x8 | x8 | x8 | x8 | x8 | x8 | x8 | x8 | x8 | x8 | x8 | x8 | %37
 x8 | x8 | x8 | x8 | x8 | x8 | x8 | x8 | x8 | x8 | x8 | x8 | x8 | x8 | x8 | x8 | x8 |1 x8 | x8 :|2 %56
 C,8- | C,2 x2 x4 |] %58

